out/images/message.svg

<svg fill="none" height="16" viewBox="0 0 20 16" width="20" xmlns="http://www.w3.org/2000/svg"><path d="m19.5.726166h-19v14.551134h19zm-1.9 12.747634h-15.2v-7.64998l7.6 4.32068 7.6-4.32068zm0-9.74881-7.6 4.32071-7.6-4.32071v-1.19882h15.2z" fill="#000"/></svg>

<svg width="20" height="16" viewBox="0 0 20 16" fill="none" xmlns="http://www.w3.org/2000/svg">
<path d="M19.5 0.726166H0.5V15.2773H19.5V0.726166ZM17.6 13.4738H2.4V5.82382L10 10.1445L17.6 5.82382V13.4738ZM17.6 3.72499L10 8.0457L2.4 3.72499V2.52617H17.6V3.72499Z" fill="black"/>
</svg>
